widgets/eBookmark/images/btns/list_selected.svg

<svg width="16" height="16" xmlns="http://www.w3.org/2000/svg"><path d="M16 11.5V9H0v2.5h16zm0 4.5v-2.5H0V16h16zm0-9V4.5H0V7h16zM0 2.5h16V0H0v2.5z" fill-rule="evenodd"/></svg>

<?xml version="1.0" encoding="UTF-8"?>
<svg width="16px" height="16px" viewBox="0 0 16 16" version="1.1" xmlns="http://www.w3.org/2000/svg" xmlns:xlink="http://www.w3.org/1999/xlink">
    <!-- Generator: Sketch 44.1 (41455) - http://www.bohemiancoding.com/sketch -->
    <title>List-Select</title>
    <desc>Created with Sketch.</desc>
    <defs></defs>
    <g id="Bookmark" stroke="none" stroke-width="1" fill="none" fill-rule="evenodd">
        <g id="Bookmark_Editable-List" transform="translate(-1394.000000, -180.000000)" fill="#000000">
            <g id="Bookmark" transform="translate(1070.000000, 120.000000)">
                <g id="Button" transform="translate(20.000000, 60.000000)">
                    <g id="List-Select" transform="translate(304.000000, 0.000000)">
                        <path d="M16,11.5 L16,9 L0,9 L0,11.5 L16,11.5 Z M16,16 L16,13.5 L0,13.5 L0,16 L16,16 Z M16,7 L16,4.5 L0,4.5 L0,7 L16,7 Z M0,2.5 L16,2.5 L16,0 L0,0 L0,2.5 Z" id="Shape"></path>
                    </g>
                </g>
            </g>
        </g>
    </g>
</svg>
